svg/300/outlined/location_disabled-fill.svg

<svg xmlns="http://www.w3.org/2000/svg" width="48" height="48" viewBox="0 -960 960 960"><path d="m761.153-281.309-32.846-33.23Q750-348.385 763.73-391.116q13.731-42.73 13.731-86.884 0-122.692-87.384-210.077Q602.692-775.461 480-775.461q-43.307 0-86.884 13.731-43.577 13.73-75.808 35.423l-32.23-32.23q35.616-27.693 80.692-42.385 45.077-14.692 91.538-19.692v-65.384h45.384v65.384q133.923 13.231 220.307 99.615 86.384 86.384 99.615 220.307h65.384v45.384h-65.384q-5 45.846-19.077 89.076-14.077 43.231-42.384 84.923ZM457.308-70.002v-65.769q-133.923-12.846-220.307-99.23-86.384-86.384-99.23-220.307H72.002v-45.384h65.769q5.23-53.308 22.077-99.731 16.846-46.423 45.385-84.269L85.156-804.384l32.999-32.615 720.844 720.844-33 32.999-119.922-120.692q-38.462 29.769-84.27 46.308-45.807 16.539-99.115 21.769v65.769h-45.384ZM480-180.54q47.308 0 92.539-15.385t80.308-40.154L238.078-650.847q-24.154 33.846-39.847 78-15.692 44.154-15.692 94.847 0 122.692 87.384 210.077Q357.308-180.539 480-180.539Z"/></svg>

<svg xmlns="http://www.w3.org/2000/svg" width="48" height="48" viewBox="0 -960 960 960"><path d="m761.15-281.31-32.84-33.23q21.69-33.85 35.42-76.58T777.46-478q0-122.69-87.38-210.08-87.39-87.38-210.08-87.38-43.31 0-86.88 13.73-43.58 13.73-75.81 35.42l-32.23-32.23q35.61-27.69 80.69-42.38 45.08-14.69 91.54-19.69V-886h45.38v65.39Q636.61-807.38 723-721q86.38 86.39 99.61 220.31H888v45.38h-65.39q-5 45.85-19.07 89.08-14.08 43.23-42.39 84.92ZM457.31-70v-65.77Q323.39-148.62 237-235q-86.38-86.39-99.23-220.31H72v-45.38h65.77Q143-554 159.85-600.42q16.84-46.43 45.38-84.27L85.16-804.38l33-32.62L839-116.16l-33 33-119.92-120.69q-38.46 29.77-84.27 46.31Q556-141 502.69-135.77V-70h-45.38ZM480-180.54q47.31 0 92.54-15.38 45.23-15.39 80.31-40.16L238.08-650.85q-24.16 33.85-39.85 78-15.69 44.16-15.69 94.85 0 122.69 87.38 210.08 87.39 87.38 210.08 87.38Z"/></svg>
